src/cmd/sc_insertcolumns.svg

<svg viewBox="0 0 16 16" xmlns="http://www.w3.org/2000/svg"><path d="m7 2v1h2v3h-2v1h2v2h1v-2h3v2h1v-7h-1-4zm2 7h-2v1h2zm1-6h3v3h-3zm1 6v2h-2v1h2v2h1v-2h2v-1h-2v-2zm-4 4v1h2v-1z" fill="#232629"/><path d="m2 2v1 1.28125 1.4375.28125 1 1.28125 1.4375.28125 2.28125.71875.71875.28125h.28125 1.4375 2.28125 1v-1-1-1-1-.71875-1.28125-1-1-.71875-1.28125-1-1h-1-2.28125zm1 1h.28125l1 1 1.71875 1.71875v.28125 1 1 .28125l-.28125-.28125-1-1-1-1-.71875-.71875zm1.71875 0h1.28125v1 .28125l-.28125-.28125zm-1.71875 3.71875.28125.28125 1 1 1.71875 1.71875v.28125 1 1 .28125l-.28125-.28125-1-1-1-1-.71875-.71875v-2.28125zm0 4 .28125.28125 1 1 1 1h-2.28125z" fill="#762572"/></svg>

<?xml version="1.0" encoding="UTF-8" standalone="no"?>
<svg
   xmlns:dc="http://purl.org/dc/elements/1.1/"
   xmlns:cc="http://creativecommons.org/ns#"
   xmlns:rdf="http://www.w3.org/1999/02/22-rdf-syntax-ns#"
   xmlns:svg="http://www.w3.org/2000/svg"
   xmlns="http://www.w3.org/2000/svg"
   xmlns:sodipodi="http://sodipodi.sourceforge.net/DTD/sodipodi-0.dtd"
   xmlns:inkscape="http://www.inkscape.org/namespaces/inkscape"
   viewBox="0 0 16 16"
   version="1.1"
   id="svg6"
   sodipodi:docname="sc_insertcolumns.svg"
   inkscape:version="0.92.4 (5da689c313, 2019-01-14)">
  <metadata
     id="metadata12">
    <rdf:RDF>
      <cc:Work
         rdf:about="">
        <dc:format>image/svg+xml</dc:format>
        <dc:type
           rdf:resource="http://purl.org/dc/dcmitype/StillImage" />
      </cc:Work>
    </rdf:RDF>
  </metadata>
  <defs
     id="defs10" />
  <sodipodi:namedview
     pagecolor="#ffffff"
     bordercolor="#666666"
     borderopacity="1"
     objecttolerance="10"
     gridtolerance="10"
     guidetolerance="10"
     inkscape:pageopacity="0"
     inkscape:pageshadow="2"
     inkscape:window-width="1920"
     inkscape:window-height="1011"
     id="namedview8"
     showgrid="true"
     inkscape:zoom="20.85965"
     inkscape:cx="9.2643902"
     inkscape:cy="14.042139"
     inkscape:window-x="1920"
     inkscape:window-y="32"
     inkscape:window-maximized="1"
     inkscape:current-layer="svg6">
    <inkscape:grid
       type="xygrid"
       id="grid822" />
  </sodipodi:namedview>
  <path
     d="M 7,2 V 3 H 9 V 6 H 7 v 1 h 2 v 2 h 1 V 7 h 3 v 2 h 1 V 4 C 14,2 13,2 11,2 H 9 Z M 9,9 H 7 v 1 h 2 z m 1,-6 h 1 c 1,0 2,0 2,1 v 2 h -3 z m 1,6 v 2 H 9 v 1 h 2 v 2 h 1 v -2 h 2 V 11 H 12 V 9 Z m -4,4 v 1 h 2 v -1 z"
     id="path2"
     inkscape:connector-curvature="0"
     style="fill:#232629"
     sodipodi:nodetypes="cccccccccccccccccccccccccccccccccccccccccccccc" />
  <path
     d="M 2,4 V 4.28125 5.71875 6 7 8.28125 9.71875 10 12 c 0,2 1,2 3,2 H 6 7 V 13 12 11 10 9.28125 8 7 6 5.28125 4 3 2 H 6 5 C 3,2 2,2 2,4 Z M 3,4 C 3,3 4,3 5,3 H 3.28125 L 3.4711335,3.1898835 4.28125,4 6,5.71875 V 6 7 8 8.28125 L 5.71875,8 l -1,-1 -1,-1 L 3,5.28125 Z M 4.71875,3 H 6 V 4 4.28125 L 5.71875,4 Z M 3,6.71875 3.28125,7 l 1,1 L 6,9.71875 V 10 v 1 1 0.28125 L 5.71875,12 l -1,-1 -1,-1 L 3,9.28125 V 7 Z m 0,4 L 3.28125,11 l 1,1 1,1 H 5 C 4,13 3,13 3,12 Z"
     id="path4"
     inkscape:connector-curvature="0"
     style="fill:#762572"
     sodipodi:nodetypes="ccccccccccccccccccccccccccccccccccccccccccccccccccccccccccccccccccccc" />
</svg>
